X:1
T:Miss Thompson's
R:reel
M:4/4
L:1/8
K:D
ABc|:d2df edcB|~A2AB AGFE|DFAF DGBG|DFAF GFED|
|defa edcB|~A2AB AGFE|DFAd fedc|1 d2dc dABc:|2 d2dc d2cd|]
|:~e2ec Aceg|~f2fd Adfa|~g2eg fedf|edcB ~A2dc|
|~B2GB dBGB|~A2FA DFAF|ABde fedc|1 d2dc d2cd:|2 d2dc dABc|]